src/components/Core/Customize/assets/path.svg

<?xml version="1.0" encoding="UTF-8"?>
<svg width="23px" height="22px" viewBox="0 0 23 22" version="1.1" xmlns="http://www.w3.org/2000/svg" xmlns:xlink="http://www.w3.org/1999/xlink">
    <!-- Generator: Sketch 47.1 (45422) - http://www.bohemiancoding.com/sketch -->
    <title>Icon_core_modify@1x</title>
    <desc>Created with Sketch.</desc>
    <defs></defs>
    <g id="Website" stroke="none" stroke-width="1" fill="none" fill-rule="evenodd">
        <g id="Core--Desktop-1170px" transform="translate(-590.000000, -2909.000000)" fill="#A781FF">
            <g id="//Content">
                <g id="Founding-team" transform="translate(0.000000, 2153.000000)">
                    <g id="Bg">
                        <g id="container" transform="translate(590.000000, 756.000000)">
                            <path d="M4.875,13.6875 C5.75521273,13.6875 6.51692387,14.0091114 7.16015625,14.6523438 C7.80338863,15.2955761 8.125,16.0572873 8.125,16.9375 C8.125,17.8177127 7.80338863,18.5794239 7.16015625,19.2226562 C6.51692387,19.8658886 5.75521273,20.1875 4.875,20.1875 C3.99478727,20.1875 3.23307613,19.8658886 2.58984375,19.2226562 C1.94661137,18.5794239 1.625,17.8177127 1.625,16.9375 C1.625,16.0572873 1.94661137,15.2955761 2.58984375,14.6523438 C3.23307613,14.0091114 3.99478727,13.6875 4.875,13.6875 Z M17.8242188,12.875 L4.875,12.875 C3.75780691,12.875 2.80143627,13.2727825 2.00585938,14.0683594 C1.21028248,14.8639363 0.8125,15.8203069 0.8125,16.9375 C0.8125,18.0546931 1.21028248,19.0110637 2.00585938,19.8066406 C2.80143627,20.6022175 3.75780691,21 4.875,21 L17.875,21 C18.9921931,21 19.9485637,20.6022175 20.7441406,19.8066406 C21.5397175,19.0110637 21.9375,18.0546931 21.9375,16.9375 C21.9375,15.8203069 21.5312541,14.8639363 20.71875,14.0683594 C19.9062459,13.2727825 18.9414118,12.875 17.8242188,12.875 Z M17.875,12.0625 C19.2291734,12.0625 20.3802036,12.5364536 21.328125,13.484375 C22.2760464,14.4322964 22.75,15.5833266 22.75,16.9375 C22.75,18.2916734 22.2760464,19.4427036 21.328125,20.390625 C20.3802036,21.3385464 19.2291734,21.8125 17.875,21.8125 L4.875,21.8125 C3.52082656,21.8125 2.36979641,21.3385464 1.421875,20.390625 C0.473953594,19.4427036 0,18.2916734 0,16.9375 C0,15.5833266 0.473953594,14.4322964 1.421875,13.484375 C2.36979641,12.5364536 3.52082656,12.0625 4.875,12.0625 L17.875,12.0625 Z M17.875,2.3125 C18.7552127,2.3125 19.5169239,2.63411137 20.1601563,3.27734375 C20.8033886,3.92057613 21.125,4.68228727 21.125,5.5625 C21.125,6.44271273 20.8033886,7.20442387 20.1601563,7.84765625 C19.5169239,8.49088863 18.7552127,8.8125 17.875,8.8125 C16.9947873,8.8125 16.2330761,8.49088863 15.5898438,7.84765625 C14.9466114,7.20442387 14.625,6.44271273 14.625,5.5625 C14.625,4.68228727 14.9466114,3.92057613 15.5898438,3.27734375 C16.2330761,2.63411137 16.9947873,2.3125 17.875,2.3125 Z M4.92578125,1.5 C3.80858816,1.5 2.84375406,1.89778248 2.03125,2.69335938 C1.21874594,3.48893627 0.8125,4.44530691 0.8125,5.5625 C0.8125,6.67969309 1.21028248,7.63606373 2.00585938,8.43164062 C2.80143627,9.22721752 3.75780691,9.625 4.875,9.625 L17.875,9.625 C18.9921931,9.625 19.9485637,9.22721752 20.7441406,8.43164062 C21.5397175,7.63606373 21.9375,6.67969309 21.9375,5.5625 C21.9375,4.44530691 21.5397175,3.48893627 20.7441406,2.69335938 C19.9485637,1.89778248 18.9921931,1.5 17.875,1.5 L4.92578125,1.5 Z M4.875,0.6875 L17.875,0.6875 C19.2291734,0.6875 20.3802036,1.16145359 21.328125,2.109375 C22.2760464,3.05729641 22.75,4.20832656 22.75,5.5625 C22.75,6.91667344 22.2760464,8.06770359 21.328125,9.015625 C20.3802036,9.96354641 19.2291734,10.4375 17.875,10.4375 L4.875,10.4375 C3.52082656,10.4375 2.36979641,9.96354641 1.421875,9.015625 C0.473953594,8.06770359 0,6.91667344 0,5.5625 C0,4.20832656 0.473953594,3.05729641 1.421875,2.109375 C2.36979641,1.16145359 3.52082656,0.6875 4.875,0.6875 Z" id="Icon_core_modify"></path>
                        </g>
                    </g>
                </g>
            </g>
        </g>
    </g>
</svg>

<svg width="23" height="22" viewBox="0 0 23 22" xmlns="http://www.w3.org/2000/svg"><title>Icon_core_modify@1x</title><path d="M4.875 13.688c.88 0 1.642.321 2.285.964.643.644.965 1.405.965 2.286 0 .88-.322 1.641-.965 2.285-.643.643-1.405.965-2.285.965-.88 0-1.642-.322-2.285-.965-.643-.644-.965-1.405-.965-2.285 0-.88.322-1.642.965-2.286.643-.643 1.405-.964 2.285-.964zm12.95-.813H4.874c-1.117 0-2.074.398-2.87 1.193-.795.796-1.192 1.752-1.192 2.87 0 1.117.397 2.073 1.193 2.869C2.8 20.602 3.758 21 4.875 21h13c1.117 0 2.074-.398 2.87-1.193.795-.796 1.192-1.752 1.192-2.87 0-1.117-.406-2.073-1.218-2.869-.813-.795-1.778-1.193-2.895-1.193zm.05-.813c1.354 0 2.505.474 3.453 1.422s1.422 2.1 1.422 3.454-.474 2.505-1.422 3.453-2.099 1.422-3.453 1.422h-13c-1.354 0-2.505-.474-3.453-1.422S0 18.29 0 16.938c0-1.355.474-2.506 1.422-3.454.948-.948 2.099-1.421 3.453-1.421h13zm0-9.75c.88 0 1.642.322 2.285.965.643.644.965 1.405.965 2.285 0 .88-.322 1.642-.965 2.286-.643.643-1.405.965-2.285.965-.88 0-1.642-.322-2.285-.965-.643-.644-.965-1.405-.965-2.285 0-.88.322-1.642.965-2.286.643-.643 1.405-.965 2.285-.965zM4.925 1.5c-1.116 0-2.081.398-2.894 1.193C1.22 3.49.812 4.445.812 5.563c0 1.117.398 2.073 1.194 2.869.795.795 1.752 1.193 2.869 1.193h13c1.117 0 2.074-.398 2.87-1.193.795-.796 1.192-1.752 1.192-2.87 0-1.117-.397-2.073-1.193-2.869-.795-.795-1.752-1.193-2.869-1.193H4.925zm-.05-.813h13c1.354 0 2.505.474 3.453 1.422s1.422 2.1 1.422 3.454-.474 2.505-1.422 3.453-2.099 1.421-3.453 1.421h-13c-1.354 0-2.505-.473-3.453-1.421C.474 8.068 0 6.916 0 5.562S.474 3.058 1.422 2.11 3.52.688 4.875.688z" fill="#A781FF" fill-rule="evenodd"/></svg>
